icons/default/Maps.svg

<g clip-path="url(#clip0)">
	<path
		d="M13.018 3.19934C13.826 4.93801 13.6426 6.98468 12.748 8.64801C12.014 10.0127 10.9186 11.1413 10.016 12.3907C9.6033 12.9627 9.18663 13.5573 8.9033 14.2087C8.8093 14.4253 8.72797 14.6473 8.64797 14.87C8.5673 15.092 8.49863 15.3187 8.4213 15.542C8.34863 15.7513 8.26397 15.998 8.0033 16H7.99863C7.68797 15.9993 7.61263 15.6467 7.5353 15.4087C7.34597 14.826 7.14797 14.2667 6.85597 13.7253C6.51597 13.096 6.09263 12.514 5.66263 11.9447L13.018 3.19934ZM5.69663 5.13668L3.0573 8.27468C3.53997 9.30134 4.2713 10.1833 4.9713 11.0613C5.13597 11.268 5.30063 11.476 5.46263 11.6853L8.7853 7.73534L8.76597 7.74201C7.6053 8.14268 6.3053 7.54801 5.83797 6.41734C5.77404 6.26387 5.72731 6.10378 5.69863 5.94001C5.65663 5.64868 5.6473 5.43268 5.69597 5.14134L5.69663 5.13668V5.13668ZM3.6613 2.09934L3.6593 2.10201C2.3613 3.74601 2.13863 6.02201 2.91463 7.94868L6.10463 4.15601L6.06597 4.12268L3.6613 2.09934ZM9.77397 0.290677L7.2153 3.33268C7.22119 3.33016 7.2272 3.32794 7.2333 3.32601C8.29997 2.95868 9.50197 3.42601 10.0466 4.41001C10.164 4.62268 10.262 4.86534 10.298 5.10668C10.3433 5.40401 10.3546 5.62201 10.306 5.92001L10.304 5.93068L12.8613 2.89001C12.193 1.67111 11.0944 0.745057 9.77997 0.292677L9.77397 0.290677ZM6.31063 3.91201L9.4413 0.190011L9.40997 0.182011C8.94671 0.0602412 8.46962 -0.000935671 7.99063 1.08159e-05C7.21504 0.00727532 6.44932 0.174836 5.74157 0.492169C5.03383 0.809502 4.39934 1.26975 3.87797 1.84401L3.8673 1.85601L6.31063 3.91201V3.91201Z"
		fill="currentColor" />
</g>

<g clip-path="url(#clip0)"><path d="M13.018 3.2c.808 1.738.625 3.785-.27 5.448-.734 1.365-1.83 2.493-2.732 3.743-.413.572-.83 1.166-1.113 1.818-.094.216-.175.438-.255.661-.08.222-.15.449-.227.672-.072.21-.157.456-.418.458H8c-.311 0-.386-.353-.464-.591-.189-.583-.387-1.142-.679-1.684-.34-.629-.763-1.211-1.193-1.78l7.355-8.746ZM5.697 5.136l-2.64 3.138C3.54 9.3 4.271 10.183 4.971 11.06c.165.207.33.415.492.624l3.322-3.95-.019.007c-1.16.4-2.46-.194-2.928-1.325a2.251 2.251 0 0 1-.14-.477 2.362 2.362 0 0 1-.002-.799v-.004ZM3.66 2.099l-.002.003c-1.298 1.644-1.52 3.92-.744 5.847l3.19-3.793-.039-.033-2.405-2.024ZM9.774.291 7.215 3.333a2.363 2.363 0 0 1 2.831 1.077c.118.213.216.455.252.697.045.297.057.515.008.813l-.002.01 2.557-3.04A5.588 5.588 0 0 0 9.78.293L9.774.29ZM6.311 3.912 9.44.19 9.41.182A5.54 5.54 0 0 0 7.99 0a5.626 5.626 0 0 0-4.112 1.844l-.01.012L6.31 3.912Z" fill="currentColor"/></g>
